X:145
T:The Old Wife of Coverdale
M:9/8
L:1/8
K:Em
"Em"EEE G2B BAG | "D"FEF D2E FED | "Em"EEE G2B BAG | "Bm"FEF DEF "Em"E3 :|
|: "Em"edc BAG "D"F3 | "D"d3 F3 "Em"B3 | "Em"edc BAG "D"F2F | [M:6/8]"D"DEF "Em"E3 :|

